X: 6742
T: Champion, The
R: jig
M: 6/8
K: Eminor
|:Bef gfe|bef g2e|fdB fdB|afb afd|
Bef gfe|bef gfg|bc'b agf|1 gee e2 A:|2 gba gfe|
|:d3 c3|Bdg bgd|cBc afd|Bdg bge|
d3 c3|Bdg bgd|cBc afd|1 gba gfe:|2 gag g3||

